build/redact/FormatPaintSolid.svg

<svg xmlns="http://www.w3.org/2000/svg" fill="none" viewBox="0 0 24 24" focusable="false"><path d="M0 0H24V24H0z"/><path fill="#74767B" fill-rule="evenodd" d="M12.547 6.61048L11.7882 6.1552C10.6078 5.44695 9.09682 5.63296 8.12341 6.60636L7.64301 7.08677L7.64296 7.08672L3.90111 10.8287C2.75231 11.9775 2.72679 13.8321 3.84355 15.0121L9.34774 20.828C9.472 20.9593 9.64189 21.0371 9.82156 21.046C9.85688 21.052 9.89316 21.055 9.93017 21.055L16.6379 21.055C16.9969 21.055 17.2879 20.764 17.2879 20.405C17.2879 20.0461 16.9969 19.755 16.6379 19.755L14.0819 19.755L17.1676 16.6235L17.6541 16.137C18.6275 15.1636 18.8135 13.6527 18.1053 12.4722L17.5965 11.6244C17.2271 11.0087 17.4268 10.2102 18.0424 9.84081L19.5896 8.9125C21.2632 7.90836 21.5475 5.59878 20.1674 4.21871L19.8709 3.92214C18.423 2.47422 15.982 2.87033 15.0663 4.70182L14.3786 6.07712C14.04 6.75444 13.1964 7.00009 12.547 6.61048ZM8.56225 8.006L16.2544 15.6982L16.7349 15.2178C17.2864 14.6662 17.3919 13.81 16.9905 13.1411L16.4818 12.2932C15.743 11.0619 16.1423 9.46485 17.3736 8.72606L18.9208 7.79776C19.8691 7.22875 20.0302 5.91998 19.2482 5.13795L18.9516 4.84138C18.1311 4.02089 16.748 4.24535 16.229 5.2832L15.5414 6.6585C14.8641 8.01313 13.1769 8.50444 11.8782 7.72522L11.1194 7.26994C10.4505 6.8686 9.59425 6.974 9.04265 7.5256L8.56225 8.006Z"/></svg>

<svg xmlns="http://www.w3.org/2000/svg" fill="none" viewBox="0 0 24 24" focusable="false"><path fill="#74767B" fill-rule="evenodd" d="m12.54 6.61-.76-.46a2.995 2.995 0 0 0-3.66.45l-.48.48-3.74 3.74a3.004 3.004 0 0 0-.06 4.19l5.5 5.81c.13.13.3.21.48.22.03.01.07.01.11.01h6.7c.36 0 .65-.29.65-.65s-.29-.65-.65-.65h-2.55l3.08-3.13.49-.49c.97-.97 1.16-2.48.45-3.66l-.51-.85c-.37-.62-.17-1.41.45-1.78l1.54-.93a3.003 3.003 0 0 0 .58-4.7l-.29-.29c-1.45-1.45-3.89-1.05-4.81.78l-.69 1.37c-.33.68-1.18.93-1.83.54M8.56 8l7.69 7.69.48-.48c.55-.55.66-1.4.26-2.07l-.51-.85c-.74-1.23-.34-2.83.89-3.57l1.55-.93c.94-.57 1.11-1.88.32-2.66l-.29-.29c-.82-.82-2.21-.6-2.73.44l-.68 1.37a2.604 2.604 0 0 1-3.67 1.07l-.76-.46c-.66-.4-1.52-.29-2.07.26z"/></svg>
